X: 2181
T: Aunt Crisps
R: reel
M: 4/4
K: Gmajor
(3DEF|:G3 F G2 D2|(CDEC) D z DD|EFGAB2A2|G2F2D2EF|
G2 GFG2 D2|(CDEC)D2 GF|EFGD CDEF|1 GBAF .G z (3DEF:|2 GBAF GABc||
|:A2AG ABcA|d2dc BAGF|E2ED CDEF|GDEF GABc|
A2AG ABcA|d2dc BAGF|EGDG CDEF|1 GBAF GABc:|2 GBAF G2 z||

